main_page/icon_facebook.svg

<svg width="12" height="20" viewBox="0 0 12 20" fill="none" xmlns="http://www.w3.org/2000/svg">
<path d="M11.3098 0H8.72094C5.57656 0 3.54594 1.98843 3.54594 5.06678V7.03521H0.940157C0.696875 7.03521 0.5 7.22377 0.5 7.45661V10.8421C0.5 11.0749 0.696875 11.2621 0.940157 11.2621H3.54594V19.58C3.54594 19.8114 3.74281 20 3.98469 20H7.655C7.89969 20 8.09656 19.8114 8.09656 19.58V11.2606H11.3084C11.5517 11.2606 11.7486 11.0735 11.7486 10.8407L11.75 7.45661C11.7494 7.40097 11.7376 7.34604 11.7154 7.2952C11.6931 7.24435 11.6609 7.19866 11.6206 7.16092C11.5363 7.0809 11.4252 7.03647 11.3098 7.03664H8.09656V5.42247C8.09656 4.47111 8.33422 3.98829 9.63359 3.98829L11.3098 3.98257C11.5517 3.98257 11.7486 3.79544 11.7486 3.5626V0.41997C11.75 0.188558 11.5531 0 11.3098 0Z" fill="#DFDFDF"/>
</svg>

<svg xmlns="http://www.w3.org/2000/svg" width="12" height="20" fill="none"><path fill="#DFDFDF" d="M11.31 0H8.72C5.578 0 3.547 1.988 3.547 5.067v1.968H.94a.43.43 0 0 0-.44.422v3.385c0 .233.197.42.44.42h2.606v8.318c0 .231.197.42.439.42h3.67a.431.431 0 0 0 .442-.42v-8.32h3.211a.43.43 0 0 0 .44-.42l.002-3.383a.415.415 0 0 0-.13-.296.45.45 0 0 0-.31-.124H8.097V5.422c0-.95.237-1.434 1.537-1.434l1.676-.005a.43.43 0 0 0 .439-.42V.42a.429.429 0 0 0-.44-.42Z"/></svg>
